X: 10384
Q: "Slow."
M: 3/4
L: 1/8
K: G
{A}G2 E2 G2 | AG {A}B2 (AG) |\
E2 G4 | {G}"^<>"e6 |\
{e}dB/A/ {A}G4 | E>G {G2}e4 |\
ed/B/ {B}d4 | {d}ed/B/ {B}d4 |\
{B}A2 Bdge | He6 |\
e2 d2 B>A | HG2 ED>EG>A !segno!|]



